X: 1
T: Killimor Jig
C: Sean Ryan
M:6/8
L:1/8
R:Jig
D:Sean Ryan and PJ Moloney LP
Z:Stephen Jones  irtrad-l 2001-3-22
K:Em
gfg edB | BAB EFG | FEF DFA | dAF AFD  |
gfg edB | BAB EGA | BdB AGF | GEE E3  :|
e3 Beg  | bge gfe | ded Adf | afd fed  |
e3 Beg  | bge gfe | BdB AGF | GEE E2  :|
